X: 9
T: Within A Mile Of Dublin
Z: Graham Glendinning
S: https://thesession.org/tunes/125#setting46665
R: reel
M: 4/4
L: 1/8
K: Dmix
FG|:AD (3{A}D{G}D{F}D FEFG|AD (3{A}D{G}D{F}D c2 Bc|AD (3{A}D{G}D{F}D FEFG|ABcA G2 FG|
AD (3{A}D{G}D{F}D FEFG|AD (3{A}D{G}D{F}D cd Bc|AD (3{A}D{G}D{F}D (3.G.F.E FG|Ad^cA G2 FG:|
|:Add^c AGFG|Adde fde^c|Add^c AGFG|ABcA G2 FG|
Add^c AGFG|Adde fe fg|af (3.g.f.e fde^c|1 ABcA G2 FG:|2 ABcA G4||

